X: 388
T: Bir Kızıl Goncaya Benzer...
C: Âmir Ateş
O: Turkey
F: http://compmusic.upf.edu/node/140
N: muhayyerkurdi--sarki--duyek--bir_kizil--amir_ates
N: makam= muhayyerkurdi
N: form= sarki
N: usul= duyek = 8/4
M: 8/4
L: 1/16
K: C _B   
Q: 1/4=180
%%MIDI tuningsystem comma53
g2 a14  | a2 .f2 .d2 .f2 a2 .f2 .d2 .f2  | \
w:  ARANAĞME  |   | 
a2 g14  | g2 .e2 .c2 .e2 g2 .e2 .c2 .e2  | \
w:   |   | 
g2 f6 .e2 .c2 .f4  | 
w:   | 
e2 f4 a2 g2 a2 f2 d2  | e16  | .f4 .d4 .e4 .c4  | \
w:   |   |   | 
.d4 .B4 .c4 .A4  | B4 G4 A4 z4  | G2 .A4 z2 .G4 .A4  | 
w:   |   |   | 
G2 A4 z2 de fg a4  | z2 g4 a2 a4 a4  | \
w:   |  Bir  kı zıl  gon  | 
g2 a2 b2 {c'}ba a2 {b}ag g2 a2  | 
w:  ca ya  ben *  *  *  zer   | 
gf fe f4 ef ge f3g  | f{g}e dc e2 f2 f4 a4  | \
w:  du *  da *  ğın   SAZ  |  *  *  *  *  *  A çı lan  tek   | 
g2 b2 a2 g2 f2 e2 d2 e2  | 
w:  gü lü sün  *  sen   | 
f2 {g}fe e4 ed cB A4  | z2 g4 a2 a4 a4  | \
w:  bu  *  ba *  ğın   SAZ  |  Bir  kı zıl  gon  | 
g2 a2 b2 {c'}ba a2 {b}ag g2 a2  | 
w:  ca ya  ben *  *  *  zer   | 
gf fe f4 ef ge f3g  | f{g}e dc e2 f2 f4 a4  | \
w:  du *  da *  ğın   SAZ  |  *  *  *  *  *  A çı lan  tek   | 
g2 b2 a2 g2 f2 e2 d2 e2  | 
w:  gü lü sün  *  sen   | 
f2 {g}fe e4 eg fe de fg  | a4 ag fe d4 a4  | \
w:  bu  *  ba *  ğın   SAZ  |  *  Ku *  ru *  lur  kalp  | 
g2 a2 g2 f2 e2 d2 c2 d2  | 
w:  le re  sev *  da   | 
cB BA B4 .A.B .c.A B4  | z2 B4 B2 B4 d4  | \
w:  o *  ta *  ğın   SAZ  |  Kim bi lir  han  | 
c2 _e2 d2 c2 B2 A2 G2 A2  | 
w:  gi  gö nül *  dür   | 
B2 {c}BA A4 eg fe de fg  | a4 ag fe d4 a4  | \
w:  du *  ra *  ğın   SAZ  |  *  Ku *  ru *  lur  kalp  | 
g2 a2 g2 f2 e2 d2 c2 d2  | 
w:  le re  sev *  da   | 
cB BA B4 .A.B .c.A B4  | z2 B4 B2 B4 d4  | \
w:  o *  ta *  ğın   SAZ  |  Kim bi lir  han  | 
c2 _e2 d2 c2 B2 A2 G2 A2  | 
w:  gi  gö nül *  dür   | 
B2 {c}BA A4 GA BG A4  | g2 a14  | a2 .f2 .d2 .f2 a2 .f2 .d2 .f2  | \
w:  du *  ra *  ğın   SAZ  |  ARANAĞME  |   | 
a2 g14  | 
w:   | 
g2 .e2 .c2 .e2 g2 .e2 .c2 .e2  | g2 f6 .e2 .c2 .f4  | \
w:   |   | 
e2 f4 a2 g2 a2 f2 d2  | e16  | 
w:   |   | 
.f4 .d4 .e4 .c4  | .d4 .B4 .c4 .A4  | \
w:   |   | 
B4 G4 A4 z4  | G2 .A4 z2 .G4 .A4  | G2 A4 z2 de fg a4  | 
w:   |   |   | 
z2 g4 a2 a4 a4  | g2 a2 b2 {c'}ba a2 {b}ag g2 a2  | \
w:  Bir  kı zıl  gon  |  ca ya  ben *  *  *  zer   | 
gf fe f4 ef ge f3g  | 
w:  du *  da *  ğın   SAZ  | 
f{g}e dc e2 f2 f4 a4  | g2 b2 a2 g2 f2 e2 d2 e2  | \
w:  *  *  *  *  *  A çı lan  tek   |  gü lü sün  *  sen   | 
f2 {g}fe e4 ed cB A4  | 
w:  bu  *  ba *  ğın   SAZ  | 
z2 g4 a2 a4 a4  | g2 a2 b2 {c'}ba a2 {b}ag g2 a2  | \
w:  Bir  kı zıl  gon  |  ca ya  ben *  *  *  zer   | 
gf fe f4 ef ge f3g  | 
w:  du *  da *  ğın   SAZ  | 
f{g}e dc e2 f2 f4 a4  | g2 b2 a2 g2 f2 e2 d2 e2  | \
w:  *  *  *  *  *  A çı lan  tek   |  gü lü sün  *  sen   | 
f2 {g}fe e4 eg fe de fg  | 
w:  bu  *  ba *  ğın   SAZ  | 
a4 ag fe d4 a4  | g2 a2 g2 f2 e2 d2 c2 d2  | \
w:  *  Ku *  ru *  lur  kalp  |  le re  sev *  da   | 
cB BA B4 .A.B .c.A B4  | 
w:  o *  ta *  ğın   SAZ  | 
z2 B4 B2 B4 d4  | c2 _e2 d2 c2 B2 A2 G2 A2  | \
w:  Kim bi lir  han  |  gi  gö nül *  dür   | 
B2 {c}BA A4 eg fe de fg  | 
w:  du *  ra *  ğın   SAZ  | 
a4 ag fe d4 a4  | g2 a2 g2 f2 e2 d2 c2 d2  | \
w:  *  Ku *  ru *  lur  kalp  |  le re  sev *  da   | 
cB BA B4 .A.B .c.A B4  | 
w:  o *  ta *  ğın   SAZ  | 
z2 B4 B2 B4 d4  | c2 _e2 d2 c2 B2 A2 G2 A2  | \
w:  Kim bi lir  han  |  gi  gö nül *  dür   | 
B2 {c}BA A4 GA BG A4  | 
w:  du *  ra *  ğın   SAZ  | 
|


